fs/chat_video_24_filled.svg

<svg viewBox="0 0 24 24" fill="none" xmlns="http://www.w3.org/2000/svg" height="1em" width="1em">
  <path d="M22 12C22 6.47715 17.5228 2 12 2C6.47715 2 2 6.47715 2 12C2 13.6428 2.3972 15.2294 3.1449 16.6502L2.02855 20.9386C1.99198 21.0791 1.99199 21.2266 2.02858 21.367C2.1469 21.8213 2.6111 22.0937 3.06538 21.9753L7.35578 20.8583C8.77516 21.6039 10.3596 22 12 22C17.5228 22 22 17.5228 22 12ZM12 8C13.1046 8 14 8.89543 14 10V14C14 15.1046 13.1046 16 12 16H9C7.89543 16 7 15.1046 7 14V10C7 8.89543 7.89543 8 9 8H12ZM15 13.1619V10.8382L16.7344 9.19628C17.2125 8.7437 18 9.08261 18 9.74093V14.2591C18 14.9174 17.2125 15.2563 16.7344 14.8037L15 13.1619Z" fill="#212121"/>
</svg>

<svg viewBox="0 0 24 24" fill="none" xmlns="http://www.w3.org/2000/svg" height="1em" width="1em">
  <path d="M22 12c0-5.523-4.477-10-10-10S2 6.477 2 12c0 1.643.397 3.23 1.145 4.65l-1.116 4.29a.85.85 0 0 0 1.036 1.036l4.29-1.117A9.96 9.96 0 0 0 12 22c5.523 0 10-4.477 10-10ZM12 8a2 2 0 0 1 2 2v4a2 2 0 0 1-2 2H9a2 2 0 0 1-2-2v-4a2 2 0 0 1 2-2h3Zm3 5.162v-2.324l1.734-1.642A.75.75 0 0 1 18 9.741v4.518a.75.75 0 0 1-1.266.545L15 13.162Z" fill="#212121"/>
</svg>
